public/assets/tracks/iot.svg

<svg fill="none" height="131" viewBox="0 0 132 131" width="132" xmlns="http://www.w3.org/2000/svg"><path d="m122.92 77.249h-16.263v-16.2629h-8.131v36.5916h-65.0518v-65.0518h36.5917v-8.1314h-16.263v-16.26298h-8.1315v16.26298h-12.1972c-2.1559.0021-4.2229.8595-5.7474 2.384s-2.3819 3.5915-2.384 5.7474v12.1972h-16.26297v8.1315h16.26297v24.3944h-16.26297v8.1315h16.26297v12.1972c.0021 2.1559.8595 4.2233 2.384 5.7473 1.5245 1.525 3.5915 2.382 5.7474 2.384h12.1972v16.263h8.1315v-16.263h24.3944v16.263h8.1315v-16.263h12.1972c2.156-.003 4.222-.861 5.746-2.385 1.525-1.524 2.382-3.5907 2.385-5.7463v-12.1972h16.263z" fill="#fff"/><g stroke="#fff"><path d="m49.37 48.422h32.281v32.281h-32.281z" stroke-width="8.804"/><circle cx="107.329" cy="24.211" r="13.206" stroke-width="7.337"/><path d="m81.992 48.762 17.608-17.608" stroke-width="7.337"/></g></svg>

<svg fill="none" viewBox="0 0 132 131"><path fill="#fff" d="M122.92 77.249h-16.263V60.986h-8.131v36.592H33.474V32.526h36.592v-8.132H53.803V8.132H45.67v16.262H33.474a8.14 8.14 0 00-8.131 8.132v12.197H9.08v8.132h16.263v24.394H9.08v8.132h16.263v12.197a8.138 8.138 0 008.131 8.131h12.197v16.263h8.132v-16.263h24.394v16.263h8.132v-16.263h12.197a8.142 8.142 0 008.131-8.131V85.38h16.263z"/><g stroke="#fff"><path stroke-width="8.804" d="M49.37 48.422h32.281v32.281H49.37z"/><circle cx="107.329" cy="24.211" r="13.206" stroke-width="7.337"/><path stroke-width="7.337" d="M81.992 48.762L99.6 31.154"/></g></svg>
